X:5913
T:Gan Ainm
R:Reel
S:
H:
N:
D:Milltown Session
Z:Adrian Scahill
M:4/4
L:1/8
K:C
Addc dcAG|EGcG EF (3GFE|D2ED Aded|ceag eddc|\
d2dc AGAB|c2dc GECE|Dddc dAFD|EGce d3e:||\
dAA2 cGG2|AGcE D2ED|CDEG cage|fdec Adde|\
dAA2 cGG2|AGcE D2ED|CDEG cage|EGce d3e:||\
gcc2 gcac|_B2FB DBFB|f_BB2 fBgB|cGG2 EGce|\
f_BB2 fBgB|cGG2 cGeG|FECA, _B,2FB,|A,2FA, G,CC2:||
